X:209
T:Reel 209
M:4/4
K:Gmaj
L:1/8
BA|G2BG AcBA|G2BG gEdB|G2BG AGBG|ABAG EGG2|G2BG AGED|G2BG AGEF|G2BG AGGe|dBAB G2| (3def |gdBd edBd|gdBG AGED|gdBd edBd|gedB A2Bd|gdBd edBd|gdBG AGED|GABc dgfe|dcBA GcBc|
